X:1
T:God with Us
T:Joseph W. Lerman
T:God with Us
T:Public Domain
T:Public Domain
T:Public Domain
C:Joseph W. Lerman
Z:Public Domain
%%score ( 1 2 ) ( 3 4 )
L:1/8
M:2/4
K:G
V:1 treble 
V:2 treble 
V:3 bass 
V:4 bass 
V:1
 [B,D][B,G] [^A,F][A,E] | [B,D][B,G] [^A,F][A,E] | [B,E][B,D] [B,G][CA] | [DB]3 z | %4
w: 1.~Soft- ly beam- ing,|bright- ly gleam- ing,|See yon love- ly|star;|
w: 2.~An- gels sing- ing,|earth- ward wing- ing,|From the realms of|light;|
w: 3.~Wait- ing sag- es,|through the ag- es,|Of His com- ing|told;|
 [DB][DB] [Dc][DB] | [DB][CA] [CA]2 | [CA][CA] [CB][CA] | [CA][B,G] [B,D]2 | %8
w: Glad good news it|brings to men,|For in lit- tle|Beth- le- hem,|
w: Ho- ver o- ver|Ju- dah’s plain,|Lift- ing high a|joy- ous strain,|
w: God with us— Em-|man- u- el,|Now with sin- ful|man doth dwell;|
 [B,D][B,G] [^A,F][A,E] | [B,D][B,G] [^A,F][A,E] | [B,E][B,D] [B,G][CA] | [DB]3 z | %12
w: In a man- ger|lies a Strang- er,|Christ the Lord and|King,|
w: Won- drous sto- ry,|peace and glo- ry,|Is their match- less|theme,|
w: High and ho- ly,|meek and low- ly,|God and man is|He,|
 [^CB][CA] [CA][CG] | [DF][DG] [D^G][DA] | [DB]2 [G^c]2 | (F"^marcato"D/F/ A/D/F/A/) || %16
w: Come to earth sal-|va- tion un- to|all to|bring. * * * * * *|
w: For the won- drous|In- fant shall from|sin re-|deem. * * * * * *|
w: Born to- day with|power di- vine our|souls to|free. * * * * * *|
"^Refrain" [DGB]2 [DGB]2 | [DGB]3 [DGB] | [DGd][DGB] [DGd][DGB] | [DGB][DFA] [DFA]2 | %20
w: ||||
w: ing star,|O shine|up- on our path|to- day, As|
w: ||||
 !>![DFc]2 !>![DFc]2 | !>![DFc]3 [DFB] | [DFB][CFA] [DFB][CFA] | [B,A][B,G] [B,D]2 | %24
w: ||||
w: of old,|still lead|us with thy beau-|teous ray; By|
w: ||||
 !>![DGB]2 !>![DGB]2 | !>![DGB]3 [DGB] | [DGd][DGB] [DGd][DGB] | [DGB][DFA] [DFA]2 | %28
w: ||||
w: thy light|re- veal|to us the King|of love, Till|
w: ||||
 !>![EGe]2 !>![EGe]2 | [DGd][DB] [Ec][CA] | !>![B,G]2 !>![A,F]2 | [B,G]3 z |] %32
w: ||||
w: at last|we sing His praise|a- bove.||
w: ||||
V:2
 x4 | x4 | x4 | x4 | x4 | x4 | x4 | x4 | x4 | x4 | x4 | x4 | x4 | x4 | x4 | [Fd]3 x || x4 | x4 | %18
w: ||||||||||||||||||
w: |||||||||||||||Guid-|||
 x4 | x4 | x4 | x4 | x4 | x4 | x4 | x4 | x4 | x4 | x4 | x4 | x4 | x4 |] %32
w: ||||||||||||||
w: ||||||||||||||
V:3
 [G,,D,][G,,D,] [G,,^C,][G,,C,] | [G,,D,][G,,D,] [G,,^C,][G,,C,] | [G,,D,][G,,D,] [G,,D,][G,,D,] | %3
 [G,,G,]3 z | [E,^G,][E,G,] [E,G,][E,G,] | [A,,A,][A,,A,] [A,,A,]2 | [D,F,][D,F,] [D,F,][D,F,] | %7
 [G,,G,][G,,G,] [G,,G,]2 | [G,,D,][G,,D,] [G,,^C,][G,,C,] | [G,,D,][G,,D,] [G,,^C,][G,,C,] | %10
 [G,,D,][G,,D,] [G,,D,][G,,D,] | [G,,G,]3 z | [A,,G,][A,,G,] [A,,E,][A,,A,] | %13
 [D,A,][E,A,] [^E,B,][F,A,] | G,2 [E,A,]2 | [D,A,]3 z || [G,,D,G,]2 [G,,D,G,]2 | %17
 [G,,D,G,]3 [G,,G,] | [B,,B,][G,,G,] [B,,B,][G,,G,] | [G,,G,][D,,D,] [D,,D,]2 | [A,,A,]2 [A,,A,]2 | %21
 [A,,A,]3 [D,,D,] | [D,,D,][D,,D,] [D,,D,][D,,D,] | [G,,D,][G,,D,] [G,,G,]2 | %24
 [G,,D,G,]2 [G,,D,G,]2 | [G,,D,G,]3 [G,,G,] | [B,,B,][G,,G,] [B,,B,][G,,G,] | %27
 [G,,G,][D,,D,] [D,,D,]2 | [C,C]2 [C,C]2 | [B,,B,][G,,G,] [C,,C,][C,,C,] | [D,,D,]2 [D,,D,]2 | %31
 [G,,D,]3 z |] %32
V:4
 x4 | x4 | x4 | x4 | x4 | x4 | x4 | x4 | x4 | x4 | x4 | x4 | x4 | x4 | G,2 x2 | x4 || x4 | x4 | %18
 x4 | x4 | x4 | x4 | x4 | x4 | x4 | x4 | x4 | x4 | x4 | x4 | x4 | x4 |] %32

